X:177
T: UNSER LEBEN GLEICHT DER REISE
N: B0664
O: Europa, Mitteleuropa, Deutschland
R: Wander -, Moral - Lied, Vergaenglichkeit
M: 4/4
L: 1/8
K: A
 | A2A2AGG2 | B2B2BAA2 |
c2c2B3A | G2F2E4 |
E2FGA2E2 | B3BcAA2 |
F2B2E2A2 | cBFGA2z2

@@@ Tune index: 2395
